X:10700
T:Merry Blacksmith
M:C
L:1/8
K:D Major
A2|d3A BAFA|ABdA BAFA|ABde f2ed|Beed egfe|!
d3A BAFA|ABdA BAFA|ABde fdec|dBAF D2:|!
fg|a3g fgfe|d3A BAFA|ABde f2ed|Beed egfe|!
abag fgfe|d3A BAFA|ABde fdec|dBAF D2:|!
